production/img/svg/search-act.svg

<svg xmlns="http://www.w3.org/2000/svg" preserveAspectRatio="xMidYMid" width="25" height="26" viewBox="0 0 25 26"><defs><style>.cls-2 { fill: #2f8de0; }</style></defs><path d="M22.263 17.035c-3.544 3.544-9.08 3.861-12.994.973l-7.159 7.159-2.121-2.121 7.159-7.16c-2.888-3.913-2.571-9.449.973-12.993 3.905-3.905 10.237-3.905 14.142 0 3.905 3.905 3.905 10.237 0 14.142zm-2.67-11.472c-2.431-2.431-6.372-2.431-8.803 0-2.431 2.431-2.431 6.372 0 8.803 2.431 2.431 6.372 2.431 8.803 0 2.431-2.431 2.431-6.372 0-8.803z" id="path-1" class="cls-2" fill-rule="evenodd"/></svg>

<svg xmlns="http://www.w3.org/2000/svg" xmlns:xlink="http://www.w3.org/1999/xlink" preserveAspectRatio="xMidYMid" width="25" height="26" viewBox="0 0 25 26">
  <defs>
    <style>

      .cls-2 {
        fill: #2f8de0;
      }
    </style>
  </defs>
  <path d="M22.263,17.035 C18.719,20.579 13.183,20.896 9.269,18.008 C9.269,18.008 2.110,25.167 2.110,25.167 C2.110,25.167 -0.011,23.046 -0.011,23.046 C-0.011,23.046 7.148,15.886 7.148,15.886 C4.260,11.973 4.577,6.437 8.121,2.893 C12.026,-1.012 18.358,-1.012 22.263,2.893 C26.168,6.798 26.168,13.130 22.263,17.035 ZM19.593,5.563 C17.162,3.132 13.221,3.132 10.790,5.563 C8.359,7.994 8.359,11.935 10.790,14.366 C13.221,16.797 17.162,16.797 19.593,14.366 C22.024,11.935 22.024,7.994 19.593,5.563 Z" id="path-1" class="cls-2" fill-rule="evenodd"/>
</svg>
